!!!id: EG052
!!!page: 141-144
!!!COM: Anonymous
!!!LYR: Anonymous
!!!PTL@@FR: Chansons Populaires du Canada
!!!OTL@@FR: Le P'tit bois d'l'Ail
!!!PUB: G. E. Desbarats
!!!YEM:
!!!PDT: 1865
!!!SMA:
!!!OMD:
!!!AGN-Laforte:
!!!AGN-type:
!!!AGN-rime:
**kern
*clefG2
*k[f#]
*G:
*M3/8
*
*
8d
=1
4g
8a
=2
4b
8cc
=3
!LO:TX:a:t=LJ2
4dd
8b
=4
4.dd
=5
4ee
8cc
!!LO:PB:g=original
=6
4b
8cc
=7
[4.dd
=8
8dd]
8r
8b
=9
4g
8a
=10
4b
8cc
=11
!LO:TX:a:t=LJ2
4dd
8b
!!LO:PB:g=original
=12
4.dd
=13
4ee
8cc
=14
4b
8cc
=15
[4.dd
=16
8dd]
8r
==17
4.dd
=18
4b
8dd
!!LO:PB:g=original
=19
4ee
8dd
=20
4cc
8a
=21
4.cc
=22
4b
8b
=23
!LO:TX:a:t=LJ2
4b
8g
=24
4a
8r
=25
4.dd
!!LO:PB:g=original
=26
4b
8cc
=27
[4.dd
=28
4dd]
8dd
=29
4.b
=30
4g
8a
=31
4b
8cc
=32
4a
8b/
!!LO:PB:g=original
=33
[4.g
=34
8g]
8r
==||
8r
==||
*
*
==|
!!!RNB: Eighth rest in m.16 flipped backward in original
!!!RNB: Upper voice beamed eighth grace notes descending a diatonic 2nd should exist on beats labelled with 'LJ2'
!!!RWG: Quarter note in m.24 presumed 'a' but somewhat unclear
*-
